icons/desktop/16/svg/restore-16.svg

<svg width="16" height="16" viewBox="0 0 16 16" fill="none" xmlns="http://www.w3.org/2000/svg">
<path d="M8.51074 2C12.1005 2.00038 15.0106 4.91014 15.0107 8.5C15.0107 12.09 12.1006 14.9996 8.51074 15C5.60784 15 3.15064 13.0978 2.31543 10.4736C2.18992 10.079 2.40811 9.65688 2.80273 9.53125C3.19731 9.40585 3.61947 9.62404 3.74512 10.0186C4.38796 12.0383 6.27971 13.5 8.51074 13.5C11.2722 13.4996 13.5107 11.2615 13.5107 8.5C13.5106 5.73856 11.2721 3.50038 8.51074 3.5C7.1801 3.5 5.9706 4.01999 5.07422 4.86816L6.35254 6.14648C6.66753 6.46148 6.44501 6.99998 5.99902 7H2.5C2.224 7 2 6.776 2 6.5V3.00098C2.00022 2.55622 2.53856 2.33273 2.85352 2.64746L4.01367 3.80762C5.18105 2.68925 6.76482 2 8.51074 2Z" fill="black"/>
<path d="M8.64551 5C9.05942 5.00026 9.39538 5.33606 9.39551 5.75V8.48633C9.39562 8.527 9.41739 8.56344 9.45117 8.58301L11.0586 9.51172C11.4169 9.71888 11.5398 10.1776 11.333 10.5361C11.1259 10.8947 10.6672 11.0174 10.3086 10.8105L8.70117 9.88281C8.20148 9.59441 7.89562 9.06117 7.89551 8.48633V5.75C7.89564 5.3359 8.23138 5 8.64551 5Z" fill="black"/>
</svg>

<!-- This Source Code Form is subject to the terms of the Mozilla Public
   - License, v. 2.0. If a copy of the MPL was not distributed with this
   - file, You can obtain one at http://mozilla.org/MPL/2.0/. -->
<svg xmlns="http://www.w3.org/2000/svg" width="16" height="16" fill="context-fill" fill-opacity="context-fill-opacity" viewBox="0 0 16 16">
    <path d="M8.51 2a6.5 6.5 0 1 1-6.195 8.474.75.75 0 0 1 1.43-.455 5 5 0 1 0 1.33-5.15l1.278 1.277A.5.5 0 0 1 5.999 7H2.5a.5.5 0 0 1-.5-.5V3.001a.5.5 0 0 1 .854-.354l1.16 1.16A6.48 6.48 0 0 1 8.51 2" />
    <path d="M8.646 5a.75.75 0 0 1 .75.75v2.736c0 .041.021.077.055.097l1.608.929a.75.75 0 0 1-.75 1.298L8.7 9.884a1.61 1.61 0 0 1-.805-1.397V5.75a.75.75 0 0 1 .75-.75" />
</svg>
